X: 20901
M: 6/8
L: 1/8
K: C
ef |\
gag dfe | c3 Gce | d{e}d^c d{e}dc | dag fd^d |\
eag dfe | c3 Gce | dag {fg}fde | c3 Hz2 "^Fin."|]
d^fg efg | dba {a}g^fg | ade ded | d^fg dBc |\
d^fg efg | dba {a}g^fg | ade ded | gdb g |]
ef |\
gag dfe | c3 Gce | d{e}d^c d{e}dc | dag fd^d |\
eag dfe | c3 Gce | dag {fg}fde | c3 z |]
cd |\
e2e a>gf | e3 edc | B2c d>cB | cdB Acd |\
e2e a>gf | e3 edc | B2c d>Bc | A3- A !segno!|]
"D.C. al Fin."Bc |\
{de}dBg {e=f}ecg | {de}dBb {de}dBg | {de}dca {de}dc^f | {de}dBg dBc |\
{de}dBg {e=f}ecg | {de}dBb {de}dBg | {de}dca {de}dc^f | gdb g |]
ef |\
gag dfe | c3 Gce | d{e}d^c d{e}dc | dag fd^d |\
eag dfe | c3 Gce | dag {fg}fde | c3 z |]


